X:382
T:West End, The
R:hp 32
O:England, Norfolk
Z:PJHeadford 2011
M:4/4
L:1/8
Q:2/4=90
K:D
|:(AG)|FGAF D2d2|cdec A2f2|gfed B2ed|c2A2 ABAG|
FGAF D2d2|cdec A2f2|gfed Bdcd|d2d2 d2:|
|:(fg)|afdf a2a2|gece g2g2|fedc d2ed|c2A2 A2fg|
afdf a2a2|gece g2g2|afdf gece|d2d2 d2:|]

